X: 536
P: Longways for as many as will
M: C|
L: 1/8
K: D
V: 1
|:\
|:\
a2gf g2fe | f2ed c2BA | Bcd2 A2F2 | D4- D4 :|
V: 2 clef=bass middle=d
|: d'2d2 f2a2 | d'4 a2f2 | g2e2 f2d2 | A8 |\
d'2d2 f2a2 | d'4 a2f2 | e2g2 a2A2 | d8 :|\
|: d2f2 g2G2 | d2f2 g2G2 | d2f2 g2G2 | e2d2 c2A2 |\
d2f2
g2G2 | d2f2 g2G2 | d2f2 g2G2 | d8 |\
d2f2 g2G2 | d2f2 g2G2 | d2f2 g2G2 | e2d2 c2A2 |\
d2f2 e2A2 | d2g2 a2f2 | g2fg a2A2 | d8 :|

